icons/2_Variations/ZeroTier bg.var.svg

<svg xmlns="http://www.w3.org/2000/svg" width="1024" height="1024" fill="none">
   <g clip-path="url(#a)">
      <path fill="#F8C18C" d="M512 1024c282.77 0 512-229.23 512-512S794.77 0 512 0 0 229.23 0 512s229.23 512 512 512Z"/>
      <path fill="#fff" d="M761.5 310.2v-45.7h-499v45.7h226.6v27.1c-86.7 11.4-153.6 85.5-153.6 175.2 0 89.7 66.9 163.7 153.6 175.2v72h43.1V688c88.5-9.8 157.3-84.7 157.3-175.6 0-91-68.8-165.8-157.3-175.6v-26.6h229.3ZM379.4 512.4c0-65.4 47.4-119.8 109.7-130.9v261.7c-62.3-11-109.7-65.4-109.7-130.8Zm266.2 0c0 66.7-49.3 122-113.4 131.5v-263c64.2 9.5 113.4 64.8 113.4 131.5Z"/>
   </g>
   <defs>
      <clipPath id="a">
         <path fill="#fff" d="M0 0h1024v1024H0z"/>
      </clipPath>
   </defs>
</svg>

<svg width="1024" height="1024" viewBox="0 0 1024 1024" fill="none" xmlns="http://www.w3.org/2000/svg">
<g clip-path="url(#clip0_3_359)">
<path d="M512 1024C794.77 1024 1024 794.77 1024 512C1024 229.23 794.77 0 512 0C229.23 0 0 229.23 0 512C0 794.77 229.23 1024 512 1024Z" fill="#F8C18C"/>
<path d="M761.5 310.2V264.5H262.5V310.2H489.1V337.3C402.4 348.7 335.5 422.8 335.5 512.5C335.5 602.2 402.4 676.2 489.1 687.7V759.7H532.2V688C620.7 678.2 689.5 603.3 689.5 512.4C689.5 421.4 620.7 346.6 532.2 336.8V310.2H761.5ZM379.4 512.4C379.4 447 426.8 392.6 489.1 381.5V643.2C426.8 632.2 379.4 577.8 379.4 512.4ZM645.6 512.4C645.6 579.1 596.3 634.4 532.2 643.9V380.9C596.4 390.4 645.6 445.7 645.6 512.4Z" fill="white"/>
</g>
<defs>
<clipPath id="clip0_3_359">
<rect width="1024" height="1024" fill="white"/>
</clipPath>
</defs>
</svg>
